!!!PDT:	1923
!!!LANG: Non-Tone
!!!LING_GROUP: Siouan
!!!REG: Dakotas
!!!COM: Anon.
!!!OTL: He Holds a Knife in His Hand
!!!ODT: <1918//
!!!MPN: Wopite [Scattered Corn, Mrs. Holding Eagle]
!!!MLC: Fort Berthold Reservation, North Dakota, United States of America
!! Song was recorded during either the summer of 1912, 1915, or 1918.
!!!AGN: monody
!!!SOCIAL_FUNCTION: Mandan and Hidatsa War Songs
!!!AMT: irregular
!!!RWG: Transcribed pitches, durations, and meters are only approximate.
!! Drum Tempo: MM69
!! Drum-rhythm: (4 4 4 4)
**kern
*ICvox
*Ifemale
*clefG2
*k[b-e-a-d-g-]
*M2/4
*MM69
=1-
(12b-
12b-
12b-)
8b-
8b-
=2
(12b-
12f
12b-)
(12b-
12f
12b-)
=3
8f
8f
4f
=4
(12b-
12f
12f)
8f
8f
=5
(12f
12e-
12f)
(12f
12e-
12f)
=6
8g
8f
4f
=7
2r
=8
(12b-
12b-
12b-)
8b-
8b-
=9
(12b-
12f
12b-)
(12b-
12f
12b-)
=10
8f
8f
8.f
16b-
=11
(12f
12f
12f)
8f
8f
=12
(12f
12e-
12f)
(12f
12e-
12f)
=13
8g
8f
4f
==
*-
!!!CNT: Mandan
!!!TXO: Mandan
!!!OCY: United States
!!!OCL: Frances Densmore
!!!YOR: Frances Densmore, "Mandan and Hidatsa Music",
!!!YOR: Bulletin 80, page 160, No. 92
!!!PPR: Smithsonian Institution, Bureau of American Ethnology
!!!PPR: Government Printing Office
!!!PDT: 1923
!!!PPP: Washington, DC, United States of America
!!!YEC: Electronic Copyright 2000 David Huron
!!!YER: August 2000
!!!YEN: United States of America
!!!ENC: David Huron
!!!RDT: August 18, 2000
!!!EEV: Release 1.0
!!!AIN: tom, vox
